;FLAVOR:Marlin
;TIME:11025
;Filament used: 11.3346m
;Layer height: 0.2
;MINX:72.7
;MINY:80.7
;MINZ:0.3
;MAXX:147.3
;MAXY:139.3
;MAXZ:51.5
;Generated with Cura_SteamEngine 4.13.1
M140 S60
M105
M190 S60
M104 S200
M105
M109 S200
M82 ;absolute extrusion mode
G28 ;Home
G1 Z15.0 F2000 ;Move the platform
G92 E0
G92 E0
G1 F1500 E-6.5
;LAYER_COUNT:257
;LAYER:0
M107
M204 S1000
G0 F6000 X75.123 Y82.849 Z0.3
;TYPE:SKIRT
G1 F1500 E0
G1 F1200 X75.722 Y82.334 E0.03941
G1 X76.37 Y81.883 E0.0788
G1 X77.061 Y81.499 E0.11824
G1 X77.786 Y81.187 E0.15762
G1 X78.539 Y80.95 E0.197
G1 X79.313 Y80.791 E0.23642
G1 X80.098 Y80.71 E0.27579
G1 X80.5 Y80.7 E0.29586
G1 X129.5 Y80.7 E2.74048
G1 X130.289 Y80.74 E2.77989
G1 X131.069 Y80.859 E2.81925
G1 X131.486 Y80.967 E2.84074
G1 X131.539 Y80.95 E2.84352
G1 X132.313 Y80.791 E2.88294
G1 X133.098 Y80.71 E2.92231
G1 X133.5 Y80.7 E2.94238
G1 X139.5 Y80.7 E3.24172
G1 X140.289 Y80.74 E3.28113
G1 X141.069 Y80.859 E3.3205
G1 X141.834 Y81.057 E3.35992
G1 X142.574 Y81.331 E3.39929
G1 X143.283 Y81.679 E3.43869
G1 X143.954 Y82.097 E3.47813
G1 X144.578 Y82.58 E3.5175
G1 X145.151 Y83.123 E3.55688
G1 X145.666 Y83.722 E3.5963
G1 X146.117 Y84.37 E3.63568
G1 X146.501 Y85.061 E3.67512
G1 X146.813 Y85.786 E3.7145
G1 X147.05 Y86.539 E3.75388
G1 X147.209 Y87.313 E3.79331
G1 X147.29 Y88.098 E3.83268
G1 X147.3 Y88.5 E3.85274
G1 X147.3 Y131.5 E5.99802
G1 X147.26 Y132.289 E6.03743
G1 X147.141 Y133.069 E6.0768
G1 X146.943 Y133.834 E6.11622
G1 X146.669 Y134.574 E6.15559
G1 X146.321 Y135.283 E6.19499
G1 X145.903 Y135.954 E6.23443
G1 X145.42 Y136.578 E6.2738
G1 X144.877 Y137.151 E6.31319
G1 X144.278 Y137.666 E6.3526
G1 X143.63 Y138.117 E6.39198
G1 X142.939 Y138.501 E6.43142
G1 X142.214 Y138.813 E6.4708
G1 X141.461 Y139.05 E6.51019
G1 X140.687 Y139.209 E6.54961
G1 X139.902 Y139.29 E6.58898
G1 X139.5 Y139.3 E6.60904
G1 X133.5 Y139.3 E6.90838
G1 X132.711 Y139.26 E6.9478
G1 X131.931 Y139.141 E6.98716
G1 X131.514 Y139.033 E7.00865
G1 X131.461 Y139.05 E7.01143
G1 X130.687 Y139.209 E7.05085
G1 X129.902 Y139.29 E7.09022
G1 X129.5 Y139.3 E7.11028
G1 X80.5 Y139.3 E9.5549
G1 X79.711 Y139.26 E9.59432
G1 X78.931 Y139.141 E9.63368
G1 X78.166 Y138.943 E9.67311
G1 X77.426 Y138.669 E9.71247
G1 X76.717 Y138.321 E9.75188
G1 X76.046 Y137.903 E9.79132
G1 X75.422 Y137.42 E9.83069
G1 X74.849 Y136.877 E9.87007
G1 X74.334 Y136.278 E9.90948
G1 X73.883 Y135.63 E9.94887
G1 X73.499 Y134.939 E9.98831
G1 X73.187 Y134.214 E10.02769
G1 X72.95 Y133.461 E10.06707
G1 X72.791 Y132.687 E10.10649
G1 X72.71 Y131.902 E10.14586
G1 X72.7 Y131.5 E10.16593
G1 X72.7 Y88.5 E12.3112
G1 X72.74 Y87.711 E12.35062
G1 X72.859 Y86.931 E12.38998
G1 X73.057 Y86.166 E12.42941
G1 X73.331 Y85.426 E12.46877
G1 X73.679 Y84.717 E12.50818
G1 X74.097 Y84.046 E12.54762
G1 X74.58 Y83.422 E12.58699
G1 X75.123 Y82.849 E12.62637
G0 F6000 X75.516 Y83.03
G1 F1200 X76.111 Y82.542 E12.66476
G1 X76.753 Y82.119 E12.70312
G1 X77.436 Y81.764 E12.74152
G1 X78.151 Y81.483 E12.77985
G1 X78.893 Y81.277 E12.81827
G1 X79.651 Y81.149 E12.85662
G1 X80.5 Y81.1 E12.89905
G1 X129.5 Y81.1 E15.34367
G1 X130.268 Y81.14 E15.38203
G1 X131.028 Y81.259 E15.42041
G1 X131.502 Y81.385 E15.44488
G1 X131.893 Y81.277 E15.46512
G1 X132.651 Y81.149 E15.50347
G1 X133.5 Y81.1 E15.5459
G1 X139.5 Y81.1 E15.84524
G1 X140.268 Y81.14 E15.88361
G1 X141.028 Y81.259 E15.92199
G1 X141.771 Y81.457 E15.96035
G1 X142.49 Y81.731 E15.99874
G1 X143.176 Y82.078 E16.03709
G1 X143.823 Y82.494 E16.07547
G1 X144.423 Y82.975 E16.11383
G1 X144.97 Y83.516 E16.15221
G1 X145.458 Y84.111 E16.19061
G1 X145.881 Y84.753 E16.22896
G1 X146.236 Y85.436 E16.26737
G1 X146.517 Y86.151 E16.30569
G1 X146.723 Y86.893 E16.34411
G1 X146.851 Y87.651 E16.38246
G1 X146.9 Y88.5 E16.42489
G1 X146.9 Y131.5 E18.57017
G1 X146.86 Y132.268 E18.60854
G1 X146.741 Y133.028 E18.64692
G1 X146.543 Y133.771 E18.68528
G1 X146.269 Y134.49 E18.72367
G1 X145.922 Y135.176 E18.76202
G1 X145.506 Y135.823 E18.8004
G1 X145.025 Y136.423 E18.83876
G1 X144.484 Y136.97 E18.87714
G1 X143.889 Y137.458 E18.91554
G1 X143.247 Y137.881 E18.95389
G1 X142.564 Y138.236 E18.9923
G1 X141.849 Y138.517 E19.03062
G1 X141.107 Y138.723 E19.06904
G1 X140.349 Y138.851 E19.10739
G1 X139.5 Y138.9 E19.14982
G1 X133.5 Y138.9 E19.44916
G1 X132.732 Y138.86 E19.48753
G1 X131.972 Y138.741 E19.52591
G1 X131.498 Y138.615 E19.55038
G1 X131.107 Y138.723 E19.57061
G1 X130.349 Y138.851 E19.60897
G1 X129.5 Y138.9 E19.65139
G1 X80.5 Y138.9 E22.09601
G1 X79.732 Y138.86 E22.13438
G1 X78.972 Y138.741 E22.17276
G1 X78.229 Y138.543 E22.21112
G1 X77.51 Y138.269 E22.24951
G1 X76.824 Y137.922 E22.28786
G1 X76.177 Y137.506 E22.32624
G1 X75.577 Y137.025 E22.3646
G1 X75.03 Y136.484 E22.40299
G1 X74.542 Y135.889 E22.44138
G1 X74.119 Y135.247 E22.47974
G1 X73.764 Y134.564 E22.51814
G1 X73.483 Y133.849 E22.55647
G1 X73.277 Y133.107 E22.59489
G1 X73.149 Y132.349 E22.63324
G1 X73.1 Y131.5 E22.67566
G1 X73.1 Y88.5 E24.82094
G1 X73.14 Y87.732 E24.85931
G1 X73.259 Y86.972 E24.89769
G1 X73.457 Y86.229 E24.93605
G1 X73.731 Y85.51 E24.97444
G1 X74.078 Y84.824 E25.01279
G1 X74.494 Y84.177 E25.05117
G1 X74.975 Y83.577 E25.08953
G1 X75.516 Y83.03 E25.12792
G0 F6000 X75.908 Y83.216
G1 F1200 X76.498 Y82.757 E25.16521
G1 X77.134 Y82.362 E25.20256
G1 X77.808 Y82.038 E25.23987
G1 X78.513 Y81.788 E25.27719
G1 X79.241 Y81.614 E25.31453
G1 X79.983 Y81.519 E25.35185
G1 X80.5 Y81.5 E25.37766
G1 X129.5 Y81.5 E27.82228
G1 X130.247 Y81.54 E27.85961
G1 X130.985 Y81.659 E27.8969
G1 X131.488 Y81.797 E27.92292
G1 X131.513 Y81.788 E27.92425
G1 X132.241 Y81.614 E27.96159
G1 X132.983 Y81.519 E27.99891
G1 X133.5 Y81.5 E28.02472
G1 X139.5 Y81.5 E28.32406
G1 X140.247 Y81.54 E28.36139
G1 X140.985 Y81.659 E28.39868
G1 X141.707 Y81.857 E28.43603
G1 X142.403 Y82.13 E28.47333
G1 X143.066 Y82.477 E28.51066
G1 X143.689 Y82.892 E28.54801
G1 X144.263 Y83.371 E28.58531
G1 X144.784 Y83.908 E28.62264
G1 X145.243 Y84.498 E28.65993
G1 X145.638 Y85.134 E28.69728
G1 X145.962 Y85.808 E28.73459
G1 X146.212 Y86.513 E28.77191
G1 X146.386 Y87.241 E28.80925
G1 X146.481 Y87.983 E28.84657
G1 X146.5 Y88.5 E28.87238
G1 X146.5 Y131.5 E31.01766
G1 X146.46 Y132.247 E31.05498
G1 X146.341 Y132.985 E31.09228
G1 X146.143 Y133.707 E31.12963
G1 X145.87 Y134.403 E31.16693
G1 X145.523 Y135.066 E31.20426
G1 X145.108 Y135.689 E31.24161
G1 X144.629 Y136.263 E31.27891
G1 X144.092 Y136.784 E31.31623
G1 X143.502 Y137.243 E31.35353
G1 X142.866 Y137.638 E31.39088
G1 X142.192 Y137.962 E31.42819
G1 X141.487 Y138.212 E31.46551
G1 X140.759 Y138.386 E31.50285
G1 X140.017 Y138.481 E31.54017
G1 X139.5 Y138.5 E31.56598
G1 X133.5 Y138.5 E31.86532
G1 X132.753 Y138.46 E31.90265
G1 X132.015 Y138.341 E31.93994
G1 X131.512 Y138.203 E31.96596
G1 X131.487 Y138.212 E31.96729
G1 X130.759 Y138.386 E32.00463
G1 X130.017 Y138.481 E32.04195
G1 X129.5 Y138.5 E32.06776
G1 X80.5 Y138.5 E34.51238
G1 X79.753 Y138.46 E34.5497
G1 X79.015 Y138.341 E34.587
G1 X78.293 Y138.143 E34.62435
G1 X77.597 Y137.87 E34.66165
G1 X76.934 Y137.523 E34.69898
G1 X76.311 Y137.108 E34.73633
G1 X75.737 Y136.629 E34.77363
G1 X75.216 Y136.092 E34.81095
G1 X74.757 Y135.502 E34.84825
G1 X74.362 Y134.866 E34.8856
G1 X74.038 Y134.192 E34.92291
G1 X73.788 Y133.487 E34.96023
G1 X73.614 Y132.759 E34.99757
G1 X73.519 Y132.017 E35.03489
G1 X73.5 Y131.5 E35.0607
G1 X73.5 Y88.5 E37.20598
G1 X73.54 Y87.753 E37.2433
G1 X73.659 Y87.015 E37.2806
G1 X73.857 Y86.293 E37.31795
G1 X74.13 Y85.597 E37.35525
G1 X74.477 Y84.934 E37.39258
G1 X74.892 Y84.311 E37.42993
G1 X75.371 Y83.737 E37.46722
G1 X75.908 Y83.216 E37.50455
G0 F6000 X75.765 Y83.902
G1 F1200 X76.299 Y83.409 E37.54081
G1 X76.884 Y82.979 E37.57703
G1 X77.513 Y82.615 E37.61329
G1 X78.178 Y82.322 E37.64955
G1 X78.871 Y82.104 E37.68579
G1 X79.583 Y81.964 E37.72199
G1 X80.5 Y81.9 E37.76785
G1 X129.5 Y81.9 E40.21247
G1 X130.225 Y81.94 E40.2487
G1 X130.942 Y82.059 E40.28496
G1 X131.506 Y82.219 E40.31421
G1 X131.871 Y82.104 E40.3333
G1 X132.583 Y81.964 E40.3695
G1 X133.5 Y81.9 E40.41536
G1 X139.5 Y81.9 E40.7147
G1 X140.225 Y81.94 E40.75093
G1 X140.942 Y82.059 E40.78719
G1 X141.641 Y82.257 E40.82343
G1 X142.314 Y82.53 E40.85967
G1 X142.953 Y82.875 E40.8959
G1 X143.55 Y83.289 E40.93214
G1 X144.098 Y83.765 E40.96836
G1 X144.591 Y84.299 E41.00461
G1 X145.021 Y84.884 E41.04084
G1 X145.385 Y85.513 E41.07709
G1 X145.678 Y86.178 E41.11335
G1 X145.896 Y86.871 E41.14959
G1 X146.036 Y87.583 E41.18579
G1 X146.1 Y88.5 E41.23166
G1 X146.1 Y131.5 E43.37693
G1 X146.06 Y132.225 E43.41316
G1 X145.941 Y132.942 E43.44942
G1 X145.743 Y133.641 E43.48567
G1 X145.47 Y134.314 E43.5219
G1 X145.125 Y134.953 E43.55813
G1 X144.711 Y135.55 E43.59437
G1 X144.235 Y136.098 E43.63059
G1 X143.701 Y136.591 E43.66685
G1 X143.116 Y137.021 E43.70307
G1 X142.487 Y137.385 E43.73932
G1 X141.822 Y137.678 E43.77558
G1 X141.129 Y137.896 E43.81182
G1 X140.417 Y138.036 E43.84803
G1 X139.5 Y138.1 E43.89389
G1 X133.5 Y138.1 E44.19323
G1 X132.775 Y138.06 E44.22945
G1 X132.058 Y137.941 E44.26571
G1 X131.494 Y137.781 E44.29496
G1 X131.129 Y137.896 E44.31405
G1 X130.417 Y138.036 E44.35026
G1 X129.5 Y138.1 E44.39612
G1 X80.5 Y138.1 E46.84074
G1 X79.775 Y138.06 E46.87696
G1 X79.058 Y137.941 E46.91322
G1 X78.359 Y137.743 E46.94947
G1 X77.686 Y137.47 E46.9857
G1 X77.047 Y137.125 E47.02193
G1 X76.45 Y136.711 E47.05818
G1 X75.902 Y136.235 E47.09439
G1 X75.409 Y135.701 E47.13065
G1 X74.979 Y135.116 E47.16687
G1 X74.615 Y134.487 E47.20313
G1 X74.322 Y133.822 E47.23938
G1 X74.104 Y133.129 E47.27563
G1 X73.964 Y132.417 E47.31183
G1 X73.9 Y131.5 E47.35769
G1 X73.9 Y88.5 E49.50297
G1 X73.94 Y87.775 E49.53919
G1 X74.059 Y87.058 E49.57545
G1 X74.257 Y86.359 E49.6117
G1 X74.53 Y85.686 E49.64793
G1 X74.875 Y85.047 E49.68416
G1 X75.289 Y84.45 E49.72041
G1 X75.765 Y83.902 E49.75662
G0 F6000 X76.159 Y84.073
G1 F1200 X76.689 Y83.609 E49.79176
G1 X77.268 Y83.209 E49.82687
G1 X77.889 Y82.877 E49.86201
G1 X78.543 Y82.617 E49.89712
G1 X79.223 Y82.433 E49.93226
G1 X79.919 Y82.327 E49.96739
G1 X80.5 Y82.3 E49.9964
G1 X129.5 Y82.3 E52.44102
G1 X130.203 Y82.34 E52.47615
G1 X130.897 Y82.459 E52.51128
G1 X131.497 Y82.635 E52.54248
G1 X131.543 Y82.617 E52.54494
G1 X132.223 Y82.433 E52.58009
G1 X132.919 Y82.327 E52.61521
G1 X133.5 Y82.3 E52.64423
G1 X139.5 Y82.3 E52.94357
G1 X140.203 Y82.34 E52.9787
G1 X140.897 Y82.459 E53.01383
G1 X141.572 Y82.657 E53.04892
G1 X142.221 Y82.929 E53.08403
G1 X142.835 Y83.274 E53.11917
G1 X143.406 Y83.685 E53.15427
G1 X143.927 Y84.159 E53.18941
G1 X144.391 Y84.689 E53.22455
G1 X144.791 Y85.268 E53.25966
G1 X145.123 Y85.889 E53.29479
G1 X145.383 Y86.543 E53.3299
G1 X145.567 Y87.223 E53.36505
G1 X145.673 Y87.919 E53.40017
G1 X145.7 Y88.5 E53.42919
G1 X145.7 Y131.5 E55.57447
G1 X145.66 Y132.203 E55.6096
G1 X145.541 Y132.897 E55.64473
G1 X145.343 Y133.572 E55.67982
G1 X145.071 Y134.221 E55.71493
G1 X144.726 Y134.835 E55.75007
G1 X144.315 Y135.406 E55.78517
G1 X143.841 Y135.927 E55.82031
G1 X143.311 Y136.391 E55.85545
G1 X142.732 Y136.791 E55.89056
G1 X142.111 Y137.123 E55.92569
G1 X141.457 Y137.383 E55.9608
G1 X140.777 Y137.567 E55.99595
G1 X140.081 Y137.673 E56.03107
G1 X139.5 Y137.7 E56.06009
G1 X133.5 Y137.7 E56.35943
G1 X132.797 Y137.66 E56.39456
G1 X132.103 Y137.541 E56.42969
G1 X131.503 Y137.365 E56.46089
G1 X131.457 Y137.383 E56.46335
G1 X130.777 Y137.567 E56.4985
G1 X130.081 Y137.673 E56.53362
G1 X129.5 Y137.7 E56.56264
G1 X80.5 Y137.7 E59.00726
G1 X79.797 Y137.66 E59.04239
G1 X79.103 Y137.541 E59.07752
G1 X78.428 Y137.343 E59.11261
G1 X77.779 Y137.071 E59.14772
G1 X77.165 Y136.726 E59.18286
G1 X76.594 Y136.315 E59.21795
G1 X76.073 Y135.841 E59.2531
G1 X75.609 Y135.311 E59.28824
G1 X75.209 Y134.732 E59.32335
G1 X74.877 Y134.111 E59.35848
G1 X74.617 Y133.457 E59.39359
G1 X74.433 Y132.777 E59.42874
G1 X74.327 Y132.081 E59.46386
G1 X74.3 Y131.5 E59.49288
G1 X74.3 Y88.5 E61.63816
G1 X74.34 Y87.797 E61.67329
G1 X74.459 Y87.103 E61.70842
G1 X74.657 Y86.428 E61.74351
G1 X74.929 Y85.779 E61.77862
G1 X75.274 Y85.165 E61.81376
G1 X75.685 Y84.594 E61.84885
G1 X76.159 Y84.073 E61.884
G0 F6000 X76.553 Y84.251
G1 F1200 X77.078 Y83.817 E61.91798
G1 X77.65 Y83.448 E61.95194
G1 X78.262 Y83.149 E61.98592
G1 X78.904 Y82.924 E62.01986
G1 X79.569 Y82.775 E62.05386
G1 X80.5 Y82.7 E62.10046
G1 X129.5 Y82.7 E64.54508
G1 X130.18 Y82.74 E64.57906
G1 X130.85 Y82.859 E64.61301
G1 X131.502 Y83.056 E64.64699
G1 X131.513 Y83.061 E64.64759
G1 X131.904 Y82.924 E64.66826
G1 X132.569 Y82.775 E64.70226
G1 X133.5 Y82.7 E64.74886
G1 X139.5 Y82.7 E65.0482
G1 X140.18 Y82.74 E65.08219
G1 X140.85 Y82.859 E65.11614
G1 X141.502 Y83.056 E65.15012
G1 X142.126 Y83.328 E65.18408
G1 X142.714 Y83.672 E65.21807
G1 X143.258 Y84.082 E65.25205
G1 X143.749 Y84.553 E65.286
G1 X144.183 Y85.078 E65.31998
G1 X144.552 Y85.65 E65.35394
G1 X144.851 Y86.262 E65.38792
G1 X145.076 Y86.904 E65.42186
G1 X145.225 Y87.569 E65.45586
G1 X145.3 Y88.5 E65.50246
G1 X145.3 Y131.5 E67.64774
G1 X145.26 Y132.18 E67.68172
G1 X145.141 Y132.85 E67.71567
G1 X144.944 Y133.502 E67.74965
G1 X144.672 Y134.126 E67.78361
G1 X144.328 Y134.714 E67.8176
G1 X143.918 Y135.258 E67.85158
G1 X143.447 Y135.749 E67.88553
G1 X142.922 Y136.183 E67.91951
G1 X142.35 Y136.552 E67.95347
G1 X141.738 Y136.851 E67.98745
G1 X141.096 Y137.076 E68.02139
G1 X140.431 Y137.225 E68.05539
G1 X139.5 Y137.3 E68.10199
G1 X133.5 Y137.3 E68.40133
G1 X132.82 Y137.26 E68.43532
G1 X132.15 Y137.141 E68.46927
G1 X131.498 Y136.944 E68.50325
G1 X131.487 Y136.939 E68.50385
G1 X131.096 Y137.076 E68.52452
G1 X130.431 Y137.225 E68.55852
G1 X129.5 Y137.3 E68.60512
G1 X80.5 Y137.3 E71.04974
G1 X79.82 Y137.26 E71.08372
G1 X79.15 Y137.141 E71.11767
G1 X78.498 Y136.944 E71.15165
G1 X77.874 Y136.672 E71.18561
G1 X77.286 Y136.328 E71.2196
G1 X76.742 Y135.918 E71.25358
G1 X76.251 Y135.447 E71.28753
G1 X75.817 Y134.922 E71.32151
G1 X75.448 Y134.35 E71.35547
G1 X75.149 Y133.738 E71.38945
G1 X74.924 Y133.096 E71.42339
G1 X74.775 Y132.431 E71.45739
G1 X74.7 Y131.5 E71.50399
G1 X74.7 Y88.5 E73.64927
G1 X74.74 Y87.82 E73.68325
G1 X74.859 Y87.15 E73.7172
G1 X75.056 Y86.498 E73.75118
G1 X75.328 Y85.874 E73.78514
G1 X75.672 Y85.286 E73.81913
G1 X76.082 Y84.742 E73.85312
G1 X76.553 Y84.251 E73.88706
G0 F6000 X76.945 Y84.435
G1 F1200 X77.465 Y84.034 E73.91982
G1 X78.029 Y83.698 E73.95258
G1 X78.631 Y83.434 E73.98537
G1 X79.26 Y83.244 E74.01815
G1 X79.907 Y83.133 E74.0509
G1 X80.5 Y83.1 E74.08053
G1 X129.5 Y83.1 E76.52515
G1 X130.156 Y83.14 E76.55794
G1 X130.802 Y83.259 E76.59071
G1 X131.429 Y83.456 E76.6235
G1 X131.504 Y83.49 E76.62761
G1 X131.631 Y83.434 E76.63453
G1 X132.26 Y83.244 E76.66732
G1 X132.907 Y83.133 E76.70007
G1 X133.5 Y83.1 E76.7297
G1 X139.5 Y83.1 E77.02904
G1 X140.156 Y83.14 E77.06183
G1 X140.802 Y83.259 E77.0946
G1 X141.429 Y83.456 E77.12739
G1 X142.027 Y83.728 E77.16016
G1 X142.588 Y84.07 E77.19294
G1 X143.103 Y84.478 E77.22572
G1 X143.565 Y84.945 E77.2585
G1 X143.966 Y85.465 E77.29126
G1 X144.302 Y86.029 E77.32401
G1 X144.566 Y86.631 E77.3568
G1 X144.756 Y87.26 E77.38959
G1 X144.867 Y87.907 E77.42234
G1 X144.9 Y88.5 E77.45197
G1 X144.9 Y131.5 E79.59725
G1 X144.86 Y132.156 E79.63003
G1 X144.741 Y132.802 E79.66281
G1 X144.544 Y133.429 E79.69559
G1 X144.272 Y134.027 E79.72837
G1 X143.93 Y134.588 E79.76115
G1 X143.522 Y135.103 E79.79393
G1 X143.055 Y135.565 E79.8267
G1 X142.535 Y135.966 E79.85946
G1 X141.971 Y136.302 E79.89222
G1 X141.369 Y136.566 E79.92501
G1 X140.74 Y136.756 E79.95779
G1 X140.093 Y136.867 E79.99054
G1 X139.5 Y136.9 E80.02017
G1 X133.5 Y136.9 E80.31951
G1 X132.844 Y136.86 E80.3523
G1 X132.198 Y136.741 E80.38507
G1 X131.571 Y136.544 E80.41786
G1 X131.496 Y136.51 E80.42197
G1 X131.369 Y136.566 E80.4289
G1 X130.74 Y136.756 E80.46168
G1 X130.093 Y136.867 E80.49443
G1 X129.5 Y136.9 E80.52406
G1 X80.5 Y136.9 E82.96868
G1 X79.844 Y136.86 E83.00147
G1 X79.198 Y136.741 E83.03424
G1 X78.571 Y136.544 E83.06703
G1 X77.973 Y136.272 E83.0998
G1 X77.412 Y135.93 E83.13258
G1 X76.897 Y135.522 E83.16536
G1 X76.435 Y135.055 E83.19814
G1 X76.034 Y134.535 E83.2309
G1 X75.698 Y133.971 E83.26365
G1 X75.434 Y133.369 E83.29644
G1 X75.244 Y132.74 E83.32923
G1 X75.133 Y132.093 E83.36198
